X:1
T:In the Hall of the Mountain King
T:Edvard Hagerup Grieg
L:1/8
Q:1/4=120
M:4/4
K:C
V:1 alto nm="Viola" snm="Vla."
V:1
"^Allegretto"!f! vA,B,CD EC E2 | ^DB, D2 =D_B, D2 | A,B,CD ECEA | GECE G4 | A,B,CD EC E2 | %5
 ^DB, D2 =D_B, D2 | A,B,CD ECEA | GECE G4 | E,^F,^G,A, B,G, B,2 | C^G, C2 B,G, B,2 | %10
 E,^F,^G,A, B,G, B,2 | C^G, C2 B,4 | E,^F,^G,A, B,G, B,2 | C^G, C2 B,G, B,2 | E,^F,^G,A, B,G, B,2 | %15
 C^G, C2 B,4 | A,B,CD EC E2 | ^DB, D2 =D_B, D2 | A,B,CD ECEA | GECE G4 | A,B,CD EC E2 | %21
 ^DB, D2 =D_B, D2 | A,B,CD ECEA | ^GEGB A4 |] %24

